packages/dnb-ui-lib/assets/icons/web.svg

<svg width="16" height="16" viewBox="0 0 16 16" fill="none" xmlns="http://www.w3.org/2000/svg">
<path d="M6.57982 14.7953C5.6328 13.4065 5 10.8828 5 8C5 5.11724 5.6328 2.59351 6.57982 1.20471M9.5 1.20471C10.447 2.59351 11.0798 5.11724 11.0798 8C11.0798 10.8828 10.447 13.4065 9.5 14.7953M1.45963 5.5C1.16268 6.2764 1 7.1192 1 8C1 8.8808 1.16268 9.7236 1.45963 10.5M1.45963 5.5C2.46605 2.86863 5.0148 1 8 1C10.9852 1 13.5339 2.86863 14.5404 5.5M1.45963 5.5H14.5404M14.5404 5.5C14.8373 6.2764 15 7.1192 15 8C15 8.8808 14.8373 9.7236 14.5404 10.5M14.5404 10.5C13.5339 13.1314 10.9852 15 8 15C5.0148 15 2.46605 13.1314 1.45963 10.5M14.5404 10.5L1.45963 10.5" stroke="black" stroke-width="1.5" stroke-linecap="round" stroke-linejoin="round"/>
</svg>

<svg width="16" height="16" viewBox="0 0 16 16" fill="none" xmlns="http://www.w3.org/2000/svg"><path d="M6.58 14.795C5.633 13.406 5 10.883 5 8s.633-5.406 1.58-6.795m2.92 0c.947 1.389 1.58 3.912 1.58 6.795s-.633 5.406-1.58 6.795M1.46 5.5A6.984 6.984 0 001 8c0 .88.163 1.724.46 2.5m0-5a7.003 7.003 0 0113.08 0m-13.08 0h13.08m0 0c.297.776.46 1.62.46 2.5 0 .88-.163 1.724-.46 2.5m0 0a7.003 7.003 0 01-13.08 0m13.08 0H1.46" stroke="#000" stroke-width="1.5" stroke-linecap="round" stroke-linejoin="round"/></svg>
